Papirus-GTK/24x24/apps/kolf.svg

<svg height="24" width="24" xmlns="http://www.w3.org/2000/svg"><rect fill="#ccc" height="19.998222" rx="10" ry="9.9991112" transform="matrix(0 -1 -1 0 0 0)" width="20" x="-22" y="-21.999111"/><path d="m21.541652 9.0105c-.139648-.445785-.309608-.8736-.502655-1.28445a1.4998667 1.5 0 0 0 -.451535 1.5834 1.4998667 1.5 0 0 0  1.273886 1.04175c-.075858-.447235-.180169-.89525-.319716-1.34075zm-.895921-2.027c-.337035-.58415-.727085-1.12415-1.163696-1.61765a1.4998667 1.5 0 0 0  .05915.60365 1.4998667 1.5 0 0 0  1.104551 1.014zm1.316583 4.20285a1.4998667 1.5 0 0 0 -.328595 1.463 1.4998667 1.5 0 0 0  .295193.53075c.07711-.65485.08992-1.32125.0334-1.99375zm-2.897742-5.0675a1.4998667 1.5 0 0 0 -1.879683-.98295 1.4998667 1.5 0 0 0 -.982863 1.87985 1.4998667 1.5 0 0 0  1.879683.98295 1.4998667 1.5 0 0 0  .982863-1.87985zm1.046257 3.33995a1.4998667 1.5 0 0 0 -1.879683-.98295 1.4998667 1.5 0 0 0 -.982863 1.87985 1.4998667 1.5 0 0 0  1.879683.98295 1.4998667 1.5 0 0 0  .982863-1.87985zm1.046257 3.33995a1.4998667 1.5 0 0 0 -1.879683-.98295 1.4998667 1.5 0 0 0 -.982863 1.87985 1.4998667 1.5 0 0 0  1.879683.98295 1.4998667 1.5 0 0 0  .982863-1.87985zm.296459 2.4522a1.4998667 1.5 0 0 0 -1.12985-.09525 1.4998667 1.5 0 0 0 -.982863 1.87985 1.4998667 1.5 0 0 0  .723536.8724c.594347-.8113 1.062256-1.70585 1.389177-2.657zm-3.546185-11.316c-.811428-.59445-1.705848-1.0624-2.656764-1.38935a1.4998667 1.5 0 0 0 -.095246 1.12995 1.4998667 1.5 0 0 0  1.879682.98295 1.4998667 1.5 0 0 0  .872323-.7236zm-3.229213-.1099a1.4998667 1.5 0 0 0 -1.879333-.98295 1.4998667 1.5 0 0 0 -.982913 1.87985 1.4998667 1.5 0 0 0  1.879333.98275 1.4998667 1.5 0 0 0  .982913-1.87965zm1.046257 3.33995a1.4998667 1.5 0 0 0 -1.879683-.98295 1.4998667 1.5 0 0 0 -.982863 1.87985 1.4998667 1.5 0 0 0  1.879683.98295 1.4998667 1.5 0 0 0  .982863-1.87985zm1.046257 3.33995a1.4998667 1.5 0 0 0 -1.879683-.98295 1.4998667 1.5 0 0 0 -.982863 1.87985 1.4998667 1.5 0 0 0  1.879683.98295 1.4998667 1.5 0 0 0  .982863-1.87985zm1.046257 3.33995a1.4998667 1.5 0 0 0 -1.879683-.98295 1.4998667 1.5 0 0 0 -.982863 1.87985 1.4998667 1.5 0 0 0  1.879683.98295 1.4998667 1.5 0 0 0  .982863-1.87985zm1.046257 3.33995a1.4998667 1.5 0 0 0 -1.879683-.98295 1.4998667 1.5 0 0 0 -.982863 1.87985 1.4998667 1.5 0 0 0  1.879683.98295 1.4998667 1.5 0 0 0  .982863-1.87985zm-5.683995-15.1155c-.654942-.07715-1.320882-.08995-1.993323-.0334a1.4998667 1.5 0 0 0 1.46287.3286 1.4998667 1.5 0 0 0  .530453-.2952zm5.453515 17.413a1.4998667 1.5 0 0 0 -.603596.05916 1.4998667 1.5 0 0 0 -1.01391 1.10465c.584098-.337065 1.12405-.72715 1.617506-1.1638zm-7.294851-14.6115a1.4998667 1.5 0 0 0 -1.8796831-.98295 1.4998667 1.5 0 0 0 -.9828626 1.87985 1.4998667 1.5 0 0 0  1.8796827.98295 1.4998667 1.5 0 0 0  .982863-1.87985zm1.046257 3.33995a1.4998667 1.5 0 0 0 -1.879683-.98295 1.4998667 1.5 0 0 0 -.9828627 1.87985 1.4998667 1.5 0 0 0  1.8796827.98295 1.4998667 1.5 0 0 0  .982863-1.87985zm1.046257 3.33995a1.4998667 1.5 0 0 0 -1.879683-.98295 1.4998667 1.5 0 0 0 -.982863 1.87985 1.4998667 1.5 0 0 0  1.879683.98295 1.4998667 1.5 0 0 0  .982863-1.87985zm1.046257 3.33995a1.4998667 1.5 0 0 0 -1.879683-.98295 1.4998667 1.5 0 0 0 -.982863 1.87985 1.4998667 1.5 0 0 0  1.879683.98295 1.4998667 1.5 0 0 0  .982863-1.87985zm1.046257 3.33995a1.4998667 1.5 0 0 0 -1.879683-.98295 1.4998667 1.5 0 0 0 -.982863 1.87985 1.4998667 1.5 0 0 0  1.879683.98295 1.4998667 1.5 0 0 0  .982863-1.87985zm.749833 2.80855a1.4998667 1.5 0 0 0 -1.583259-.451575 1.4998667 1.5 0 0 0 -1.041657 1.274c.447195-.07587.89517-.180185 1.34063-.319745.445746-.13966.873523-.309635 1.284336-.5027zm-5.922973-18.9025c-.4469606.07585-.8949208.1802-1.3403812.31975-.4459603.13965-.8734223.30965-1.2843858.5027a1.4998667 1.5 0 0 0 1.5832593.451575 1.4998667 1.5 0 0 0  1.0416577-1.274zm-2.3521412 3.78045a1.4998667 1.5 0 0 0 -1.879683-.98295 1.4998667 1.5 0 0 0 -.9828626 1.87985 1.4998667 1.5 0 0 0  1.8796829.98295 1.4998667 1.5 0 0 0  .9828627-1.87985zm1.046257 3.33995a1.4998667 1.5 0 0 0 -1.879683-.98295 1.4998667 1.5 0 0 0 -.9828626 1.87985 1.4998667 1.5 0 0 0  1.8796829.98295 1.4998667 1.5 0 0 0  .9828627-1.87985zm1.0462572 3.33995a1.4998667 1.5 0 0 0 -1.8796832-.98295 1.4998667 1.5 0 0 0 -.9828626 1.87985 1.4998667 1.5 0 0 0  1.8796829.98295 1.4998667 1.5 0 0 0  .9828629-1.87985zm1.046257 3.33995a1.4998667 1.5 0 0 0 -1.8796832-.98295 1.4998667 1.5 0 0 0 -.9828626 1.87985 1.4998667 1.5 0 0 0  1.8796828.98295 1.4998667 1.5 0 0 0  .982863-1.87985zm1.046257 3.33995a1.4998667 1.5 0 0 0 -1.879683-.98295 1.4998667 1.5 0 0 0 -.9828628 1.87985 1.4998667 1.5 0 0 0  1.8796828.98295 1.4998667 1.5 0 0 0  .982863-1.87985zm-5.200538-15.9245c-.5839481.33705-1.1239001.72715-1.6178562 1.1638a1.4998667 1.5 0 0 0  .6039464-.05915 1.4998667 1.5 0 0 0  1.0139098-1.10465zm5.829482 18.61a1.4998667 1.5 0 0 0 -1.46287-.328635 1.4998667 1.5 0 0 0 -.530703.29522c.654792.07712 1.321133.08993 1.993573.03341zm-8.1537754-14.999a1.4998667 1.5 0 0 0 -.7235357-.8725c-.5943471.8113-1.0622555 1.7059-1.3891765 2.657a1.4998667 1.5 0 0 0 1.1298496.0955 1.4998667 1.5 0 0 0  .9828626-1.88zm1.046257 3.33995a1.4998667 1.5 0 0 0 -1.8796829-.98295 1.4998667 1.5 0 0 0 -.9828626 1.87985 1.4998667 1.5 0 0 0  1.8796829.98295 1.4998667 1.5 0 0 0  .9828626-1.87985zm1.046257 3.33995a1.4998667 1.5 0 0 0 -1.8796829-.98295 1.4998667 1.5 0 0 0 -.9828626 1.87985 1.4998667 1.5 0 0 0  1.8796829.98295 1.4998667 1.5 0 0 0  .9828626-1.87985zm1.046257 3.33995a1.4998667 1.5 0 0 0 -1.8796829-.98295 1.4998667 1.5 0 0 0 -.9828626 1.87985 1.4998667 1.5 0 0 0  1.8796829.98295 1.4998667 1.5 0 0 0  .9828626-1.87985zm1.046257 3.33995a1.4998667 1.5 0 0 0 -1.8796829-.98295 1.4998667 1.5 0 0 0 -.8723224.7236c.8112278.5944 1.7057483 1.06235 2.6567638 1.3893a1.4998667 1.5 0 0 0  .095491-1.1305zm-6.4784241-8.974a1.4998667 1.5 0 0 0 -.2952238-.5305c-.0771131.65485-.089922 1.32125-.033402 1.99375a1.4998667 1.5 0 0 0  .3286058-1.463zm1.046257 3.33995a1.4998667 1.5 0 0 0 -1.2738868-1.0415c.075858.447235.180169.89525.3197166 1.34075.1396476.445785.3096075.8736.5026553 1.28445a1.4998667 1.5 0 0 0  .4515349-1.5834zm1.046257 3.33995a1.4998667 1.5 0 0 0 -1.1045518-1.014c.337035.58415.7270853 1.12415 1.1636965 1.61765a1.4998667 1.5 0 0 0 -.059145-.6035z" fill="#fff" opacity=".4"/><path d="m12 2c-5.5395076 0-9.9991112 4.46-9.9991112 10 0 .084-.002.1665 0 .25.1321883-5.423 4.5435961-9.75 9.9991112-9.75 5.455515 0 9.867123 4.327 9.999111 9.75.002-.0835 0-.166 0-.25 0-5.54-4.459603-10-9.999111-10z" fill="#fff" opacity=".2"/><path d="m2.0067383 11.75c-.00205.0835-.00585.166-.00585.25 0 5.54 4.4596036 10 9.9991117 10 5.539507 0 9.99911-4.46 9.99911-10 0-.084-.004-.1665-.006-.25-.131987 5.423-4.537595 9.75-9.99311 9.75-5.4555151 0-9.8611235-4.327-9.9931117-9.75z" opacity=".3"/></svg>

<?xml version="1.0" encoding="UTF-8" standalone="no"?>
<!-- Created with Inkscape (http://www.inkscape.org/) -->

<svg
   xmlns:dc="http://purl.org/dc/elements/1.1/"
   xmlns:cc="http://creativecommons.org/ns#"
   xmlns:rdf="http://www.w3.org/1999/02/22-rdf-syntax-ns#"
   xmlns:svg="http://www.w3.org/2000/svg"
   xmlns="http://www.w3.org/2000/svg"
   xmlns:sodipodi="http://sodipodi.sourceforge.net/DTD/sodipodi-0.dtd"
   xmlns:inkscape="http://www.inkscape.org/namespaces/inkscape"
   id="svg2817"
   height="24"
   width="24"
   version="1.0"
   inkscape:version="0.91 r13725"
   sodipodi:docname="kolf.svg">
  <defs
     id="defs10" />
  <sodipodi:namedview
     pagecolor="#ffffff"
     bordercolor="#666666"
     borderopacity="1"
     objecttolerance="10"
     gridtolerance="10"
     guidetolerance="10"
     inkscape:pageopacity="0"
     inkscape:pageshadow="2"
     inkscape:window-width="1600"
     inkscape:window-height="843"
     id="namedview8"
     showgrid="false"
     inkscape:zoom="8.08"
     inkscape:cx="-13.014851"
     inkscape:cy="-4.2711864"
     inkscape:window-x="0"
     inkscape:window-y="0"
     inkscape:window-maximized="1"
     inkscape:current-layer="svg2817" />
  <metadata
     id="metadata57">
    <rdf:RDF>
      <cc:Work
         rdf:about="">
        <dc:format>image/svg+xml</dc:format>
        <dc:type
           rdf:resource="http://purl.org/dc/dcmitype/StillImage" />
        <dc:title />
      </cc:Work>
    </rdf:RDF>
  </metadata>
  <rect
     style="fill:#cccccc;fill-opacity:1"
     id="rect4203-2"
     transform="matrix(0,-1,-1,0,0,0)"
     rx="10"
     ry="9.9991112"
     height="19.998222"
     width="20"
     y="-21.999111"
     x="-22" />
  <path
     style="opacity:0.4;fill:#ffffff"
     inkscape:connector-curvature="0"
     id="path4145"
     d="M 21.541652,9.0105 C 21.402004,8.564715 21.232044,8.1369 21.038997,7.72605 a 1.4998667,1.5 0 0 0 -0.451535,1.5834 1.4998667,1.5 0 0 0 1.273886,1.04175 C 21.78549,9.903965 21.681179,9.45595 21.541632,9.01045 Z M 20.645731,6.9835 C 20.308696,6.39935 19.918646,5.85935 19.482035,5.36585 a 1.4998667,1.5 0 0 0 0.05915,0.60365 1.4998667,1.5 0 0 0 1.104551,1.014 z m 1.316583,4.20285 a 1.4998667,1.5 0 0 0 -0.328595,1.463 1.4998667,1.5 0 0 0 0.295193,0.53075 c 0.07711,-0.65485 0.08992,-1.32125 0.0334,-1.99375 z M 19.064572,6.11885 A 1.4998667,1.5 0 0 0 17.184889,5.1359 1.4998667,1.5 0 0 0 16.202026,7.01575 1.4998667,1.5 0 0 0 18.081709,7.9987 1.4998667,1.5 0 0 0 19.064572,6.11885 Z m 1.046257,3.33995 a 1.4998667,1.5 0 0 0 -1.879683,-0.98295 1.4998667,1.5 0 0 0 -0.982863,1.87985 1.4998667,1.5 0 0 0 1.879683,0.98295 1.4998667,1.5 0 0 0 0.982863,-1.87985 z m 1.046257,3.33995 a 1.4998667,1.5 0 0 0 -1.879683,-0.98295 1.4998667,1.5 0 0 0 -0.982863,1.87985 1.4998667,1.5 0 0 0 1.879683,0.98295 1.4998667,1.5 0 0 0 0.982863,-1.87985 z m 0.296459,2.4522 a 1.4998667,1.5 0 0 0 -1.12985,-0.09525 1.4998667,1.5 0 0 0 -0.982863,1.87985 1.4998667,1.5 0 0 0 0.723536,0.8724 c 0.594347,-0.8113 1.062256,-1.70585 1.389177,-2.657 z M 17.90736,3.93495 C 17.095932,3.3405 16.201512,2.87255 15.250596,2.5456 A 1.4998667,1.5 0 0 0 15.15535,3.67555 1.4998667,1.5 0 0 0 17.035032,4.6585 1.4998667,1.5 0 0 0 17.907355,3.9349 Z M 14.678147,3.82505 A 1.4998667,1.5 0 0 0 12.798814,2.8421 1.4998667,1.5 0 0 0 11.815901,4.72195 1.4998667,1.5 0 0 0 13.695234,5.7047 1.4998667,1.5 0 0 0 14.678147,3.82505 Z M 15.724404,7.165 A 1.4998667,1.5 0 0 0 13.844721,6.18205 1.4998667,1.5 0 0 0 12.861858,8.0619 1.4998667,1.5 0 0 0 14.741541,9.04485 1.4998667,1.5 0 0 0 15.724404,7.165 Z m 1.046257,3.33995 A 1.4998667,1.5 0 0 0 14.890978,9.522 a 1.4998667,1.5 0 0 0 -0.982863,1.87985 1.4998667,1.5 0 0 0 1.879683,0.98295 1.4998667,1.5 0 0 0 0.982863,-1.87985 z m 1.046257,3.33995 a 1.4998667,1.5 0 0 0 -1.879683,-0.98295 1.4998667,1.5 0 0 0 -0.982863,1.87985 1.4998667,1.5 0 0 0 1.879683,0.98295 1.4998667,1.5 0 0 0 0.982863,-1.87985 z m 1.046257,3.33995 a 1.4998667,1.5 0 0 0 -1.879683,-0.98295 1.4998667,1.5 0 0 0 -0.982863,1.87985 1.4998667,1.5 0 0 0 1.879683,0.98295 1.4998667,1.5 0 0 0 0.982863,-1.87985 z M 13.17918,2.06935 C 12.524238,1.9922 11.858298,1.9794 11.185857,2.03595 a 1.4998667,1.5 0 0 0 1.46287,0.3286 1.4998667,1.5 0 0 0 0.530453,-0.2952 z m 5.453515,17.413 a 1.4998667,1.5 0 0 0 -0.603596,0.05916 1.4998667,1.5 0 0 0 -1.01391,1.10465 c 0.584098,-0.337065 1.12405,-0.72715 1.617506,-1.1638 z M 11.337844,4.87085 A 1.4998667,1.5 0 0 0 9.4581609,3.8879 1.4998667,1.5 0 0 0 8.4752983,5.76775 1.4998667,1.5 0 0 0 10.354981,6.7507 1.4998667,1.5 0 0 0 11.337844,4.87085 Z M 12.384101,8.2108 A 1.4998667,1.5 0 0 0 10.504418,7.22785 1.4998667,1.5 0 0 0 9.5215553,9.1077 1.4998667,1.5 0 0 0 11.401238,10.09065 1.4998667,1.5 0 0 0 12.384101,8.2108 Z m 1.046257,3.33995 a 1.4998667,1.5 0 0 0 -1.879683,-0.98295 1.4998667,1.5 0 0 0 -0.982863,1.87985 1.4998667,1.5 0 0 0 1.879683,0.98295 1.4998667,1.5 0 0 0 0.982863,-1.87985 z m 1.046257,3.33995 a 1.4998667,1.5 0 0 0 -1.879683,-0.98295 1.4998667,1.5 0 0 0 -0.982863,1.87985 1.4998667,1.5 0 0 0 1.879683,0.98295 1.4998667,1.5 0 0 0 0.982863,-1.87985 z m 1.046257,3.33995 a 1.4998667,1.5 0 0 0 -1.879683,-0.98295 1.4998667,1.5 0 0 0 -0.982863,1.87985 1.4998667,1.5 0 0 0 1.879683,0.98295 1.4998667,1.5 0 0 0 0.982863,-1.87985 z m 0.749833,2.80855 a 1.4998667,1.5 0 0 0 -1.583259,-0.451575 1.4998667,1.5 0 0 0 -1.041657,1.274 c 0.447195,-0.07587 0.89517,-0.180185 1.34063,-0.319745 0.445746,-0.13966 0.873523,-0.309635 1.284336,-0.5027 z M 10.349732,2.1367 C 9.9027714,2.21255 9.4548112,2.3169 9.0093508,2.45645 8.5633905,2.5961 8.1359285,2.7661 7.724965,2.95915 a 1.4998667,1.5 0 0 0 1.5832593,0.451575 1.4998667,1.5 0 0 0 1.0416577,-1.274 z M 7.9975908,5.91715 A 1.4998667,1.5 0 0 0 6.1179078,4.9342 1.4998667,1.5 0 0 0 5.1350452,6.81405 1.4998667,1.5 0 0 0 7.0147281,7.797 1.4998667,1.5 0 0 0 7.9975908,5.91715 Z M 9.0438478,9.2571 A 1.4998667,1.5 0 0 0 7.1641648,8.27415 1.4998667,1.5 0 0 0 6.1813022,10.154 1.4998667,1.5 0 0 0 8.0609851,11.13695 1.4998667,1.5 0 0 0 9.0438478,9.2571 Z m 1.0462572,3.33995 A 1.4998667,1.5 0 0 0 8.2104218,11.6141 1.4998667,1.5 0 0 0 7.2275592,13.49395 1.4998667,1.5 0 0 0 9.1072421,14.4769 1.4998667,1.5 0 0 0 10.090105,12.59705 Z M 11.136362,15.937 A 1.4998667,1.5 0 0 0 9.2566788,14.95405 1.4998667,1.5 0 0 0 8.2738162,16.8339 1.4998667,1.5 0 0 0 10.153499,17.81685 1.4998667,1.5 0 0 0 11.136362,15.937 Z m 1.046257,3.33995 A 1.4998667,1.5 0 0 0 10.302936,18.294 1.4998667,1.5 0 0 0 9.3200732,20.17385 1.4998667,1.5 0 0 0 11.199756,21.1568 1.4998667,1.5 0 0 0 12.182619,19.27695 Z M 6.982081,3.35245 C 6.3981329,3.6895 5.8581809,4.0796 5.3642248,4.51625 A 1.4998667,1.5 0 0 0 5.9681712,4.4571 1.4998667,1.5 0 0 0 6.982081,3.35245 Z m 5.829482,18.61 a 1.4998667,1.5 0 0 0 -1.46287,-0.328635 1.4998667,1.5 0 0 0 -0.530703,0.29522 c 0.654792,0.07712 1.321133,0.08993 1.993573,0.03341 z M 4.6577876,6.96345 A 1.4998667,1.5 0 0 0 3.9342519,6.09095 c -0.5943471,0.8113 -1.0622555,1.7059 -1.3891765,2.657 a 1.4998667,1.5 0 0 0 1.1298496,0.0955 1.4998667,1.5 0 0 0 0.9828626,-1.88 z m 1.046257,3.33995 A 1.4998667,1.5 0 0 0 3.8243617,9.32045 1.4998667,1.5 0 0 0 2.8414991,11.2003 1.4998667,1.5 0 0 0 4.721182,12.18325 1.4998667,1.5 0 0 0 5.7040446,10.3034 Z m 1.046257,3.33995 A 1.4998667,1.5 0 0 0 4.8706187,12.6604 1.4998667,1.5 0 0 0 3.8877561,14.54025 1.4998667,1.5 0 0 0 5.767439,15.5232 1.4998667,1.5 0 0 0 6.7503016,13.64335 Z m 1.046257,3.33995 A 1.4998667,1.5 0 0 0 5.9168757,16.00035 1.4998667,1.5 0 0 0 4.9340131,17.8802 1.4998667,1.5 0 0 0 6.813696,18.86315 1.4998667,1.5 0 0 0 7.7965586,16.9833 Z m 1.046257,3.33995 A 1.4998667,1.5 0 0 0 6.9631327,19.3403 1.4998667,1.5 0 0 0 6.0908103,20.0639 c 0.8112278,0.5944 1.7057483,1.06235 2.6567638,1.3893 a 1.4998667,1.5 0 0 0 0.095491,-1.1305 z m -6.4784241,-8.974 A 1.4998667,1.5 0 0 0 2.0691677,10.81875 C 1.9920546,11.4736 1.9792457,12.14 2.0357657,12.8125 a 1.4998667,1.5 0 0 0 0.3286058,-1.463 z m 1.046257,3.33995 A 1.4998667,1.5 0 0 0 2.1367617,13.6477 c 0.075858,0.447235 0.180169,0.89525 0.3197166,1.34075 0.1396476,0.445785 0.3096075,0.8736 0.5026553,1.28445 a 1.4998667,1.5 0 0 0 0.4515349,-1.5834 z m 1.046257,3.33995 a 1.4998667,1.5 0 0 0 -1.1045518,-1.014 c 0.337035,0.58415 0.7270853,1.12415 1.1636965,1.61765 a 1.4998667,1.5 0 0 0 -0.059145,-0.6035 z" />
  <path
     style="opacity:0.2;fill:#ffffff"
     inkscape:connector-curvature="0"
     id="rect3436"
     d="M 12,2 C 6.4604924,2 2.0008888,6.46 2.0008888,12 c 0,0.084 -0.002,0.1665 0,0.25 C 2.1330771,6.827 6.5444849,2.5 12,2.5 c 5.455515,0 9.867123,4.327 9.999111,9.75 0.002,-0.0835 0,-0.166 0,-0.25 C 21.999111,6.46 17.539508,2 12,2 Z" />
  <path
     style="opacity:0.3"
     inkscape:connector-curvature="0"
     id="rect4209"
     d="m 2.0067383,11.75 c -0.00205,0.0835 -0.00585,0.166 -0.00585,0.25 0,5.54 4.4596036,10 9.9991117,10 5.539507,0 9.99911,-4.46 9.99911,-10 0,-0.084 -0.004,-0.1665 -0.006,-0.25 C 21.861123,17.173 17.455515,21.5 12,21.5 6.5444849,21.5 2.1388765,17.173 2.0068883,11.75 Z" />
</svg>
